X:6284
T:Steampacket, The
O:england
M:4/4
L:1/8
R:reel
K:G
A~G3 AGFD|A~G3 Addc|A~G3 AGFD|=FEFG A~c3:|
d~g3 aggf|dgge fdcA|d~g3 aggf|d^cde fdcA|
d~g3 ag e/2f/2g|~a3g~f3g|a/2g/2f ge fde^c|dg e/2f/2g fdcA||


